storage/app/icons/phosphoricons/duotone/hand-deposit-duotone.svg

<svg xmlns="http://www.w3.org/2000/svg" fill="currentColor" viewBox="0 0 256 256"><path d="M184 96v106.31L173.32 186a20 20 0 0 0-36.9 14H56V96a8 8 0 0 1 8-8h112a8 8 0 0 1 8 8" opacity=".2"/><path d="M128 35.31V128a8 8 0 0 1-16 0V35.31L93.66 53.66a8 8 0 0 1-11.32-11.32l32-32a8 8 0 0 1 11.32 0l32 32a8 8 0 0 1-11.32 11.32Zm64 88.31V96a16 16 0 0 0-16-16h-16a8 8 0 0 0 0 16h16v80.4a28 28 0 0 0-44.25 33.6l.24.38 22.26 34a8 8 0 0 0 13.39-8.76l-22.13-33.79A12 12 0 0 1 166.4 190c.07.13.15.26.23.38l10.68 16.31a8 8 0 0 0 14.69-4.38V144a74.84 74.84 0 0 1 24 54.69V240a8 8 0 0 0 16 0v-41.35a90.89 90.89 0 0 0-40-75.03M80 80H64a16 16 0 0 0-16 16v104a8 8 0 0 0 16 0V96h16a8 8 0 0 0 0-16"/></svg>

<svg xmlns="http://www.w3.org/2000/svg" viewBox="0 0 256 256" fill="currentColor"><path d="M184,96V202.31L173.32,186a20,20,0,0,0-36.9,14H56V96a8,8,0,0,1,8-8H176A8,8,0,0,1,184,96Z" opacity="0.2"/><path d="M128,35.31V128a8,8,0,0,1-16,0V35.31L93.66,53.66A8,8,0,0,1,82.34,42.34l32-32a8,8,0,0,1,11.32,0l32,32a8,8,0,0,1-11.32,11.32Zm64,88.31V96a16,16,0,0,0-16-16H160a8,8,0,0,0,0,16h16v80.4A28,28,0,0,0,131.75,210l.24.38,22.26,34a8,8,0,0,0,13.39-8.76l-22.13-33.79A12,12,0,0,1,166.4,190c.07.13.15.26.23.38l10.68,16.31A8,8,0,0,0,192,202.31V144a74.84,74.84,0,0,1,24,54.69V240a8,8,0,0,0,16,0V198.65A90.89,90.89,0,0,0,192,123.62ZM80,80H64A16,16,0,0,0,48,96V200a8,8,0,0,0,16,0V96H80a8,8,0,0,0,0-16Z"/></svg>
